dist/static/img/vako/svg/tech-ic_07.svg

<svg width="48" height="48" viewBox="0 0 48 48" fill="none" xmlns="http://www.w3.org/2000/svg">
<g clip-path="url(#clip0_3377_559)">
<path fill-rule="evenodd" clip-rule="evenodd" d="M47.258 10.8768C47.2753 10.9407 47.2841 11.0066 47.2843 11.0728V21.3633C47.2843 21.4954 47.2494 21.6251 47.1832 21.7394C47.117 21.8537 47.0218 21.9485 46.9073 22.0142L38.2705 26.9869V36.8431C38.2705 37.1113 38.1279 37.3589 37.8954 37.494L19.8668 47.8726C19.8256 47.896 19.7806 47.911 19.7355 47.927C19.7187 47.9326 19.7027 47.9429 19.6849 47.9476C19.5589 47.9808 19.4264 47.9808 19.3004 47.9476C19.2797 47.942 19.261 47.9307 19.2413 47.9232C19.2 47.9082 19.1569 47.8951 19.1175 47.8726L1.09275 37.494C0.978243 37.4282 0.8831 37.3334 0.816909 37.2191C0.750719 37.1048 0.715819 36.9751 0.715729 36.8431L0.715729 5.97169C0.715729 5.90416 0.725107 5.83851 0.741989 5.77473C0.747616 5.75316 0.760746 5.73346 0.768249 5.71189C0.782317 5.6725 0.795447 5.63217 0.81608 5.59559C0.830148 5.57121 0.850781 5.55151 0.867662 5.52901C0.889233 5.49899 0.908928 5.46804 0.93425 5.44178C0.955821 5.42021 0.983957 5.40427 1.00834 5.38551C1.03554 5.363 1.05992 5.33861 1.09087 5.3208L10.1047 0.131483C10.2188 0.0658127 10.3481 0.03125 10.4798 0.03125C10.6115 0.03125 10.7408 0.0658127 10.8549 0.131483L19.8678 5.3208H19.8697C19.8997 5.33955 19.925 5.363 19.9522 5.38457C19.9766 5.40333 20.0038 5.42021 20.0253 5.44084C20.0516 5.46804 20.0704 5.49899 20.0929 5.52901C20.1088 5.55151 20.1304 5.57121 20.1435 5.59559C20.1651 5.63311 20.1773 5.6725 20.1923 5.71189C20.1998 5.73346 20.2129 5.75316 20.2185 5.77567C20.2358 5.83958 20.2446 5.90548 20.2448 5.97169V25.2536L27.7552 20.9291V11.0719C27.7552 11.0062 27.7646 10.9397 27.7815 10.8768C27.788 10.8543 27.8002 10.8346 27.8077 10.813C27.8227 10.7737 27.8359 10.7333 27.8565 10.6967C27.8706 10.6724 27.8912 10.6527 27.9071 10.6302C27.9296 10.6001 27.9484 10.5692 27.9747 10.5429C27.9962 10.5214 28.0234 10.5054 28.0478 10.4867C28.0759 10.4642 28.1003 10.4398 28.1303 10.4219L37.1451 5.23263C37.2592 5.16687 37.3885 5.13226 37.5202 5.13226C37.6519 5.13226 37.7813 5.16687 37.8954 5.23263L46.9082 10.4219C46.9401 10.4407 46.9645 10.4642 46.9926 10.4857C47.016 10.5045 47.0432 10.5214 47.0648 10.542C47.0911 10.5692 47.1098 10.6001 47.1323 10.6302C47.1492 10.6527 47.1699 10.6724 47.183 10.6967C47.2046 10.7333 47.2168 10.7737 47.2318 10.813C47.2402 10.8346 47.2524 10.8543 47.258 10.8768ZM45.7818 20.9291V12.3718L42.6278 14.1875L38.2705 16.6964V25.2536L45.7828 20.9291H45.7818ZM36.769 36.4088V27.846L32.483 30.2938L20.2439 37.2792V45.9227L36.769 36.4088ZM2.21818 7.27066V36.4088L18.7414 45.9218V37.2801L10.1093 32.3947L10.1065 32.3928L10.1028 32.3909C10.0737 32.3741 10.0493 32.3497 10.0221 32.329C9.99868 32.3103 9.97148 32.2953 9.95085 32.2746L9.94897 32.2718C9.92459 32.2484 9.9077 32.2193 9.88707 32.193C9.86831 32.1677 9.84581 32.1462 9.8308 32.1199L9.82986 32.1171C9.81298 32.0889 9.80266 32.0552 9.79047 32.0233C9.77828 31.9952 9.76233 31.9689 9.75483 31.9389C9.74545 31.9032 9.74358 31.8648 9.73983 31.8282C9.73608 31.8001 9.72857 31.7719 9.72857 31.7438V11.5952L5.37221 9.08546L2.21818 7.27066ZM10.4807 1.64898L2.97128 5.97169L10.4789 10.2944L17.9874 5.97075L10.4789 1.64898H10.4807ZM14.386 28.6263L18.7424 26.1184V7.27066L15.5883 9.0864L11.231 11.5952V30.443L14.386 28.6263ZM37.5202 6.75013L30.0117 11.0728L37.5202 15.3955L45.0278 11.0719L37.5202 6.75013ZM36.769 16.6964L32.4117 14.1875L29.2577 12.3718V20.9291L33.614 23.437L36.769 25.2536V16.6964ZM19.4917 35.9802L30.505 29.6926L36.0103 26.5507L28.5074 22.2308L19.8687 27.2044L11.9954 31.7372L19.4917 35.9802Z" fill="#FF2D20"/>
</g>
<defs>
<clipPath id="clip0_3377_559">
<rect width="48" height="48.0012" fill="white" transform="translate(0 0.0012207)"/>
</clipPath>
</defs>
</svg>

<svg width="48" height="48" viewBox="0 0 48 48" fill="none" xmlns="http://www.w3.org/2000/svg"><g clip-path="url(#clip0_3377_559)"><path fill-rule="evenodd" clip-rule="evenodd" d="M47.258 10.877c.017.064.026.13.026.196v10.29a.75.75 0 01-.377.651l-8.636 4.973v9.856a.752.752 0 01-.376.651L19.867 47.873c-.041.023-.086.038-.132.054-.016.006-.032.016-.05.02a.755.755 0 01-.385 0c-.02-.005-.039-.016-.059-.024-.041-.015-.084-.028-.123-.05L1.093 37.494a.751.751 0 01-.377-.65V5.971c0-.068.01-.133.026-.197.006-.022.019-.042.026-.063.014-.04.027-.08.048-.116.014-.025.035-.044.052-.067.021-.03.04-.061.066-.087.022-.022.05-.038.074-.056.028-.023.052-.047.083-.065L10.105.13a.752.752 0 01.75 0l9.013 5.19h.002c.03.019.055.042.082.064.025.018.052.035.073.056.027.027.045.058.068.088.016.023.037.042.05.067.022.037.034.077.05.116.007.021.02.041.025.064.018.064.027.13.027.196v19.282l7.51-4.325v-9.857c0-.066.01-.132.027-.195.006-.023.018-.042.026-.064.015-.04.028-.08.049-.116.014-.025.034-.044.05-.067.023-.03.041-.06.068-.087.021-.022.048-.038.073-.056.028-.023.052-.047.082-.065l9.015-5.19a.751.751 0 01.75 0l9.013 5.19c.032.019.056.042.085.064.023.018.05.035.072.056.026.027.045.058.067.088.017.023.038.042.051.067.022.036.034.077.049.116.008.022.02.041.026.064zm-1.476 10.052v-8.557l-3.154 1.816-4.358 2.508v8.558l7.513-4.325h-.001zm-9.013 15.48v-8.563l-4.286 2.448-12.24 6.985v8.644l16.526-9.514zM2.219 7.27v29.138l16.522 9.513V37.28l-8.632-4.885-.002-.002-.004-.002c-.03-.017-.054-.041-.08-.062-.024-.019-.052-.034-.072-.054l-.002-.003c-.024-.024-.041-.053-.062-.079-.019-.025-.041-.047-.056-.073l-.001-.003c-.017-.028-.027-.062-.04-.094-.012-.028-.028-.054-.035-.084-.01-.036-.011-.074-.015-.11-.004-.029-.011-.057-.011-.085V11.595l-4.357-2.51-3.154-1.814zm8.262-5.622L2.97 5.972l7.508 4.322 7.508-4.323-7.508-4.322h.002zm3.905 26.977l4.356-2.508V7.271l-3.154 1.815-4.357 2.51v18.847l3.155-1.817zM37.52 6.75l-7.508 4.323 7.508 4.322 7.508-4.323L37.52 6.75zm-.751 9.946l-4.357-2.509-3.154-1.815v8.557l4.356 2.508 3.155 1.817v-8.558zM19.492 35.98l11.013-6.287 5.505-3.142-7.503-4.32-8.638 4.973-7.874 4.533 7.497 4.243z" fill="#FF2D20"/></g><defs><clipPath id="clip0_3377_559"><path fill="#fff" transform="translate(0 .001)" d="M0 0h48v48.001H0z"/></clipPath></defs></svg>
